public/img/feature-3.svg

<svg width="655" height="614" fill="none" xmlns="http://www.w3.org/2000/svg"><path fill-rule="evenodd" clip-rule="evenodd" d="M230.262 186.279c-7.459 4.559-14.71 9.492-21.819 14.708l364.787 1.934a54.74 54.74 0 00-3.257-10.276l-339.711-6.366zm302.558-27.127c10.188 3.539 19.201 8.934 26.509 16.985l-309.021-.882c9.066-4.421 18.486-8.243 28.361-11.327a199.427 199.427 0 019.959-2.829l244.192-1.947zm-40.529-6.094l-10.406-.013c3.504-.055 6.976-.056 10.406.013zm81.946 56.616l-381.096 3.097a623.556 623.556 0 00-12.577 10.404c-.768.65-1.54 1.299-2.316 1.945l395.343 1.15c.865-5.607 1.131-11.144.646-16.596zm-2.985 27.392l-404.547-2.668A1501.073 1501.073 0 01155.3 243.2a2239.037 2239.037 0 00-8.116 6.243l421.925-5.407c.79-2.333 1.508-4.656 2.143-6.97zm-5.613 16.225l-431.129 6.201a323.84 323.84 0 00-9.695 8.236l434.086.506c2.439-5.01 4.718-9.993 6.738-14.943zm-9.666 20.828l-441.871 3.743c-4.131 4.204-8.004 8.559-11.528 13.115l443.839 1.345c3.253-6.09 6.495-12.163 9.56-18.203zm-17.988 34.174L96.24 300.015c-3.292 5.235-6.107 10.741-8.33 16.581l444.758 2.357a424.586 424.586 0 015.317-10.66zm-8.714 17.994l-445.233 3.618a140.365 140.365 0 00-1.874 11.184l440.742 1.281c1.812-5.344 3.972-10.709 6.365-16.083zm-8.941 24.584l-438.857-3.087a152.576 152.576 0 00-.379 17.551l437.19-5.977a187.118 187.118 0 012.046-8.487zm-3.765 17.186L81.71 374.758c.252 2.657.571 5.311.956 7.959l431.493.538c.723-5.077 1.498-10.153 2.406-15.198zm-3.271 21.421l-428.823 3.419a166.55 166.55 0 003.006 12.064l423.487 1.208c.666-4.46 1.277-8.952 1.889-13.455l.441-3.236zm-4.981 32.181l-418.002-7.832a164.313 164.313 0 006.927 16.741l408.534 2.166a189.463 189.463 0 002.541-11.075zm-4.789 18.76l-399.227 3.245a151.423 151.423 0 007.6 11.434l385.192 1.12c2.575-5.096 4.679-10.376 6.435-15.799zm-12.621 26.273l-371.725-2.451a137.5 137.5 0 007.022 7.53 74.574 74.574 0 009.538 8.018l348.529-4.467a153.024 153.024 0 003.812-4.747 87.185 87.185 0 002.824-3.883zm-25.353 27.509l-273.062 3.927c7.477.895 15.093 1.548 22.736 2.203 16.308 1.398 32.74 2.806 48.209 6.601.573.14 1.144.284 1.715.43l182.42.212a168.027 168.027 0 0017.982-13.373zm-34.438 22.77L297.886 518.1l3.17 1.174c15.818 5.864 31.478 11.669 47.488 14.243l31.575.096a180.896 180.896 0 0050.993-16.642z" fill="#fff"/><path fill-rule="evenodd" clip-rule="evenodd" d="M102.909 439.776c-36.105-35.906-52.797-93.26-41.918-143.004 10.431-47.701 59.041-74.013 96.282-105.593 29.868-25.328 60.725-47.572 98.105-59.247 38.699-12.087 77.917-11.248 118.356-8.361 58.296 4.161 137.288-20.508 168.593 28.846 31.452 49.586-29.76 109.144-45.117 165.821-11.137 41.104-6.426 86.61-32.422 120.341-26.289 34.112-66.525 56.336-109.039 63.216-40.033 6.48-76.22-17.198-115.606-26.859-47.013-11.532-102.911-1.027-137.234-35.16z" fill="#CE3B65"/></svg>

<svg width="655" height="614" viewBox="0 0 655 614" fill="none" xmlns="http://www.w3.org/2000/svg">
<path fill-rule="evenodd" clip-rule="evenodd" d="M230.262 186.279C222.803 190.838 215.552 195.771 208.443 200.987L573.23 202.921C572.497 199.457 571.425 196.03 569.973 192.645L230.262 186.279ZM532.82 159.152C543.008 162.691 552.021 168.086 559.329 176.137L250.308 175.255C259.374 170.834 268.794 167.012 278.669 163.928C281.985 162.892 285.304 161.951 288.628 161.099L532.82 159.152ZM492.291 153.058L481.885 153.045C485.389 152.99 488.861 152.989 492.291 153.058ZM574.237 209.674L193.141 212.771C188.92 216.165 184.732 219.64 180.564 223.175C179.796 223.825 179.024 224.474 178.248 225.12L573.591 226.27C574.456 220.663 574.722 215.126 574.237 209.674ZM571.252 237.066L166.705 234.398C162.939 237.343 159.122 240.27 155.3 243.2C152.592 245.276 149.882 247.355 147.184 249.443L569.109 244.036C569.899 241.703 570.617 239.38 571.252 237.066ZM565.639 253.291L134.51 259.492C131.209 262.194 127.967 264.934 124.815 267.728L558.901 268.234C561.34 263.224 563.619 258.241 565.639 253.291ZM555.973 274.119L114.102 277.862C109.971 282.066 106.098 286.421 102.574 290.977L546.413 292.322C549.666 286.232 552.908 280.159 555.973 274.119ZM537.985 308.293L96.2397 300.015C92.9479 305.25 90.1332 310.756 87.9104 316.596L532.668 318.953C534.372 315.401 536.156 311.846 537.985 308.293ZM529.271 326.287L84.0375 329.905C83.2632 333.597 82.6397 337.328 82.1636 341.089L522.906 342.37C524.718 337.026 526.878 331.661 529.271 326.287ZM520.33 350.871L81.4734 347.784C81.0088 353.597 80.8864 359.462 81.0945 365.335L518.284 359.358C518.903 356.512 519.58 353.681 520.33 350.871ZM516.565 368.057L81.7098 374.758C81.9624 377.415 82.2813 380.069 82.6655 382.717L514.159 383.255C514.882 378.178 515.657 373.102 516.565 368.057ZM513.294 389.478L84.4712 392.897C85.322 396.952 86.3253 400.978 87.4771 404.961L510.964 406.169C511.63 401.709 512.241 397.217 512.853 392.714C513 391.636 513.146 390.557 513.294 389.478ZM508.313 421.659L90.3111 413.827C92.3142 419.537 94.6274 425.133 97.2379 430.568L505.772 432.734C506.731 429.09 507.566 425.395 508.313 421.659ZM503.524 440.419L104.297 443.664C106.664 447.598 109.199 451.416 111.897 455.098L497.089 456.218C499.664 451.122 501.768 445.842 503.524 440.419ZM490.903 466.692L119.178 464.241C121.429 466.842 123.77 469.355 126.2 471.771C129.219 474.774 132.406 477.431 135.738 479.789L484.267 475.322C485.568 473.766 486.839 472.184 488.079 470.575C489.063 469.297 490.004 468.003 490.903 466.692ZM465.55 494.201L192.488 498.128C199.965 499.023 207.581 499.676 215.224 500.331C231.532 501.729 247.964 503.137 263.433 506.932C264.006 507.072 264.577 507.216 265.148 507.362L447.568 507.574C453.854 503.516 459.869 499.052 465.55 494.201ZM431.112 516.971L297.886 518.1C298.944 518.491 300 518.883 301.056 519.274C316.874 525.138 332.534 530.943 348.544 533.517L380.119 533.613C397.81 530.639 415.088 525.009 431.112 516.971Z" fill="white"/>
<path fill-rule="evenodd" clip-rule="evenodd" d="M102.909 439.776C66.8041 403.87 50.1124 346.516 60.9906 296.772C71.422 249.071 120.032 222.759 157.273 191.179C187.141 165.851 217.998 143.607 255.378 131.932C294.077 119.845 333.295 120.684 373.734 123.571C432.03 127.732 511.022 103.063 542.327 152.417C573.779 202.003 512.567 261.561 497.21 318.238C486.073 359.342 490.784 404.848 464.788 438.579C438.499 472.691 398.263 494.915 355.749 501.795C315.716 508.275 279.529 484.597 240.143 474.936C193.13 463.404 137.232 473.909 102.909 439.776Z" fill="#CE3B65"/>
</svg>
